X:1
T:Title
%%score { ( 1 3 ) | 2 }
L:1/8
Q:1/4=90
M:6/8
K:Ab
V:1 treble nm="Grand Piano"
V:3 treble 
V:2 bass 
V:1
 [Ec]>[=D_c][E=c] [CEA][B,EG][A,EA] | [FB][A,FA][A,DF] [A,CE]3 | %2
w: J.~H.~Hall * * * * *||
 [A,CA]>[B,DA][CEA] [CFA][B,DG][A,CA] | [=Dc][EB][FB] [EB]3 | [Ec]>[=D_c][E=c] [CEA][B,EG][A,EA] | %5
w: |||
 [FB][FA][DF] [CE]3 | [CE]>[_C=D][=CE] [_DF][EA][Fd] | [Ec]2 [DEB] [CEA]3 |[M:1/8] c | %9
w: ||||
[M:3/4] e2 c e2 f | e2 [Ec] [CEA]2 [CEA] | [A,CA]>[B,DA] [CEA][CFA] [B,DG][A,CA] | c2 z2 z2 | %13
w: ||||
 e2 c e2 f | e2 [Ec] [CEA]3 | [CE]>[_C=D] [=CE][_DF] [EA][Fd] | [Ec]2 [DEB] [CEA]3 |] %17
w: ||||
V:2
 [A,,A,]>[A,,A,][A,,A,] A,,B,,C, | [D,A,]D,D, A,,3 | A,,>A,,A,, F,F,F, | %3
 [B,,F,][B,,G,][B,,A,] [E,G,]3 | [A,,A,]>[A,,A,][A,,A,] A,,B,,C, | [D,A,][D,A,][D,A,] [A,,A,]3 | %6
 [A,,A,]>[A,,A,][A,,A,] [D,A,][C,A,][B,,A,] | [E,A,]2 E, A,,3 |[M:1/8][K:treble] [A,EA] | %9
[M:3/4] [A,CA]2 [A,EA] [A,CA]2 [A,DA] | [A,CA]2[K:bass] [A,,A,] A,,2 A,, | A,,>A,, A,,F, F,F, | %12
 .[B,,F,]2 [B,,A,] [E,G,E]2[K:treble] [A,E] | [A,CA]2 [A,EA] [A,CA]2 [A,DA] | %14
 [A,CA]2[K:bass] [A,,A,] A,,3 | [A,,A,]>[A,,A,] [A,,A,][D,A,] [C,A,][B,,A,] | [E,A,]2 E, A,,3 |] %17
V:3
 x6 | x6 | x6 | x6 | x6 | x6 | x6 | x6 |[M:1/8] x |[M:3/4] x6 | x6 | x6 | =D[G,E] [FB] B2 c | x6 | %14
 x6 | x6 | x6 |] %17

